svg/weather/moon_stars_line.svg

<?xml version="1.0" encoding="UTF-8"?>
<svg width="24px" height="24px" viewBox="0 0 24 24" version="1.1" xmlns="http://www.w3.org/2000/svg" xmlns:xlink="http://www.w3.org/1999/xlink">
    <title>moon_stars_line</title>
    <g id="页面-1" stroke="none" stroke-width="1" fill="none" fill-rule="evenodd">
        <g id="Weather" transform="translate(-528.000000, 0.000000)">
            <g id="moon_stars_line" transform="translate(528.000000, 0.000000)">
                 <path d="M24,0 L24,24 L0,24 L0,0 L24,0 Z M12.5934901,23.257841 L12.5819402,23.2595131 L12.5108777,23.2950439 L12.4918791,23.2987469 L12.4918791,23.2987469 L12.4767152,23.2950439 L12.4056548,23.2595131 C12.3958229,23.2563662 12.3870493,23.2590235 12.3821421,23.2649074 L12.3780323,23.275831 L12.360941,23.7031097 L12.3658947,23.7234994 L12.3769048,23.7357139 L12.4804777,23.8096931 L12.4953491,23.8136134 L12.4953491,23.8136134 L12.5071152,23.8096931 L12.6106902,23.7357139 L12.6232938,23.7196733 L12.6232938,23.7196733 L12.6266527,23.7031097 L12.609561,23.275831 C12.6075724,23.2657013 12.6010112,23.2592993 12.5934901,23.257841 L12.5934901,23.257841 Z M12.8583906,23.1452862 L12.8445485,23.1473072 L12.6598443,23.2396597 L12.6498822,23.2499052 L12.6498822,23.2499052 L12.6471943,23.2611114 L12.6650943,23.6906389 L12.6699349,23.7034178 L12.6699349,23.7034178 L12.678386,23.7104931 L12.8793402,23.8032389 C12.8914285,23.8068999 12.9022333,23.8029875 12.9078286,23.7952264 L12.9118235,23.7811639 L12.8776777,23.1665331 C12.8752882,23.1545897 12.8674102,23.1470016 12.8583906,23.1452862 L12.8583906,23.1452862 Z M12.1430473,23.1473072 C12.1332178,23.1423925 12.1221763,23.1452606 12.1156365,23.1525954 L12.1099173,23.1665331 L12.0757714,23.7811639 C12.0751323,23.7926639 12.0828099,23.8018602 12.0926481,23.8045676 L12.108256,23.8032389 L12.3092106,23.7104931 L12.3186497,23.7024347 L12.3186497,23.7024347 L12.3225043,23.6906389 L12.340401,23.2611114 L12.337245,23.2485176 L12.337245,23.2485176 L12.3277531,23.2396597 L12.1430473,23.1473072 Z" id="MingCute" fill-rule="nonzero"></path>
                <path d="M12.4769,4.54573 C12.1415,3.79872 12.7837,2.99796 13.5739,3.13745 C17.7941,3.88241 21,7.56587 21,12.0001 C21,16.9707 16.9705,21.0001 12,21.0001 C7.5657,21.0001 3.88225,17.7943 3.13729,13.5741 C2.99778,12.7838 3.79861,12.1417 4.54557,12.4771 C5.29352,12.8128 6.12352,13.0001 6.99996,13.0001 C10.3137,13.0001 13,10.3138 13,7.00012 C13,6.12369 12.8127,5.29368 12.4769,4.54573 Z M14.8809,5.61825 C14.9592,6.06746 15,6.52925 15,7.00012 C15,11.4184 11.4182,15.0001 6.99996,15.0001 C6.52909,15.0001 6.0673,14.9593 5.61809,14.8811 C6.71634,17.31 9.16146,19.0001 12,19.0001 C15.8659,19.0001 19,15.8661 19,12.0001 C19,9.16162 17.3098,6.7165 14.8809,5.61825 Z M5.56482,7.71573 L5.62857,7.85506 L5.62857,7.85506 C5.90134,8.41936 6.33105,8.89305 6.86601,9.21934 L6.96534,9.27755 C7.0115,9.30351 7.0115,9.36997 6.96534,9.39593 L6.86601,9.45414 C6.33105,9.78043 5.90134,10.2541 5.62857,10.8184 L5.56482,10.9577 L5.56482,10.9577 C5.53984,11.0139 5.46007,11.0139 5.4351,10.9577 L5.37134,10.8184 L5.37134,10.8184 C5.09857,10.2541 4.66887,9.78043 4.13391,9.45414 L4.03457,9.39593 L4.03457,9.39593 C3.98842,9.36997 3.98842,9.30351 4.03457,9.27755 L4.13391,9.21934 L4.13391,9.21934 C4.66887,8.89305 5.09857,8.41936 5.37134,7.85506 L5.4351,7.71573 L5.4351,7.71573 C5.46007,7.65953 5.53984,7.65953 5.56482,7.71573 Z M8.39662,2.85738 C8.43638,2.76792 8.56335,2.76792 8.6031,2.85738 L8.70458,3.07914 L8.70458,3.07914 C9.13876,3.97736 9.82274,4.73135 10.6743,5.25072 L10.8324,5.34337 L10.8324,5.34337 C10.9058,5.38469 10.9058,5.49048 10.8324,5.5318 L10.6743,5.62445 L10.6743,5.62445 C9.82274,6.14382 9.13876,6.89781 8.70458,7.79603 C8.66919,7.86924 8.63613,7.94349 8.6031,8.0178 C8.56335,8.10725 8.43638,8.10725 8.39662,8.0178 L8.29515,7.79603 L8.29515,7.79603 C7.86097,6.89781 7.17699,6.14382 6.32548,5.62445 L6.16736,5.5318 L6.16736,5.5318 C6.09389,5.49048 6.09389,5.38469 6.16736,5.34337 L6.32548,5.25072 L6.32548,5.25072 C7.17699,4.73135 7.86097,3.97736 8.29515,3.07914 L8.39662,2.85738 L8.39662,2.85738 Z" id="形状" fill="#09244B"></path>
            </g>
        </g>
    </g>
</svg>

<svg xmlns="http://www.w3.org/2000/svg" width="24" height="24"><g fill="none" fill-rule="evenodd"><path d="M24 0v24H0V0h24ZM12.593 23.258l-.011.002-.071.035-.02.004-.014-.004-.071-.035c-.01-.004-.019-.001-.024.005l-.004.01-.017.428.005.02.01.013.104.074.015.004.012-.004.104-.074.012-.016.004-.017-.017-.427c-.002-.01-.009-.017-.017-.018Zm.265-.113-.013.002-.185.093-.01.01-.003.011.018.43.005.012.008.007.201.093c.012.004.023 0 .029-.008l.004-.014-.034-.614c-.003-.012-.01-.02-.02-.022Zm-.715.002a.023.023 0 0 0-.027.006l-.006.014-.034.614c0 .012.007.02.017.024l.015-.002.201-.093.01-.008.004-.011.017-.43-.003-.012-.01-.01-.184-.092Z"/><path fill="#09244B" d="M12.477 4.546c-.335-.747.307-1.548 1.097-1.409A9 9 0 0 1 12 21c-4.434 0-8.118-3.206-8.863-7.426-.14-.79.662-1.432 1.409-1.097a6 6 0 0 0 7.931-7.931Zm2.404 1.072a8 8 0 0 1-9.263 9.263A7.002 7.002 0 0 0 19 12.001a7.002 7.002 0 0 0-4.12-6.383ZM5.565 7.716l.064.14a3.26 3.26 0 0 0 1.237 1.363l.1.059a.068.068 0 0 1 0 .118l-.1.058a3.26 3.26 0 0 0-1.237 1.364l-.064.14a.071.071 0 0 1-.13 0l-.064-.14a3.26 3.26 0 0 0-1.237-1.364l-.1-.058a.068.068 0 0 1 0-.118l.1-.059A3.26 3.26 0 0 0 5.37 7.855l.064-.14a.071.071 0 0 1 .13 0Zm2.832-4.859c.04-.09.166-.09.206 0l.102.222a5.189 5.189 0 0 0 1.97 2.172l.157.092a.108.108 0 0 1 0 .189l-.158.092a5.189 5.189 0 0 0-2.07 2.394.113.113 0 0 1-.207 0l-.102-.222a5.189 5.189 0 0 0-1.97-2.172l-.158-.092a.108.108 0 0 1 0-.189l.158-.092a5.189 5.189 0 0 0 1.97-2.172l.102-.222Z"/></g></svg>
